icons/fiscal-host-24.svg

<svg width="24" height="24" viewBox="0 0 24 24">
  <path
    d="M2 3.75C2 2.7835 2.7835 2 3.75 2H20.25C21.2165 2 22 2.7835 22 3.75V18.25C22 19.2165 21.2165 20 20.25 20H19V20.25C19 20.8023 18.5523 21.25 18 21.25C17.4477 21.25 17 20.8023 17 20.25V20H6.99689V20.25C6.99689 20.8023 6.54917 21.25 5.99689 21.25C5.4446 21.25 4.99689 20.8023 4.99689 20.25V20H3.75C2.7835 20 2 19.2165 2 18.25V3.75ZM3.75 3.5C3.61193 3.5 3.5 3.61193 3.5 3.75V18.25C3.5 18.3881 3.61193 18.5 3.75 18.5H20.25C20.3881 18.5 20.5 18.3881 20.5 18.25V3.75C20.5 3.61193 20.3881 3.5 20.25 3.5H3.75ZM14.3182 12C14.8705 12 15.3182 11.5523 15.3182 11C15.3182 10.4477 14.8705 10 14.3182 10C13.7659 10 13.3182 10.4477 13.3182 11C13.3182 11.5523 13.7659 12 14.3182 12ZM6 8.49982C5.58579 8.49982 5.25 8.8356 5.25 9.24982C5.25 9.66403 5.58579 9.99982 6 9.99982H7.5V12H6C5.58579 12 5.25 12.3358 5.25 12.75C5.25 13.1642 5.58579 13.5 6 13.5H7.5V15C7.5 15.8284 8.17157 16.5 9 16.5H17C17.8284 16.5 18.5 15.8284 18.5 15V7C18.5 6.17157 17.8284 5.5 17 5.5H9C8.17157 5.5 7.5 6.17157 7.5 7V8.49982H6ZM9 9.99982C9.41421 9.99982 9.75 9.66403 9.75 9.24982C9.75 8.8356 9.41421 8.49982 9 8.49982V7H17V15H9V13.5C9.41421 13.5 9.75 13.1642 9.75 12.75C9.75 12.3358 9.41421 12 9 12V9.99982Z" />
</svg>

<svg xmlns="http://www.w3.org/2000/svg" width="24" height="24" viewBox="0 0 24 24"><path d="M2 3.75C2 2.784 2.784 2 3.75 2h16.5c.966 0 1.75.784 1.75 1.75v14.5A1.75 1.75 0 0 1 20.25 20H19v.25a1 1 0 1 1-2 0V20H6.997v.25a1 1 0 1 1-2 0V20H3.75A1.75 1.75 0 0 1 2 18.25V3.75Zm1.75-.25a.25.25 0 0 0-.25.25v14.5c0 .138.112.25.25.25h16.5a.25.25 0 0 0 .25-.25V3.75a.25.25 0 0 0-.25-.25H3.75ZM14.318 12a1 1 0 1 0 0-2 1 1 0 0 0 0 2ZM6 8.5A.75.75 0 1 0 6 10h1.5v2H6a.75.75 0 0 0 0 1.5h1.5V15A1.5 1.5 0 0 0 9 16.5h8a1.5 1.5 0 0 0 1.5-1.5V7A1.5 1.5 0 0 0 17 5.5H9A1.5 1.5 0 0 0 7.5 7v1.5H6ZM9 10a.75.75 0 0 0 0-1.5V7h8v8H9v-1.5A.75.75 0 0 0 9 12v-2Z"/></svg>
